!!!COM: Bartok, Bela
!!!OTL: Two-Part Study
!!!ONM: 121
!!!OPR: Mikrokosmos, Vol. IV
!! Boosey & Hawkes Ltd. (London) 1955, copyright 1940 pp.48-49
!! irregular meter signature
**kern	**kern
=1	=1
*M3/2	*M3/2
8d	2r
4.d	.
1d	8e
.	4.e
.	2e
=2	=2
*M4/4	*M4/4
{8G#	{8b
8E	8dd
8G#	8b
8A#	8an
8B	8g#
8d	8e
8B	8g#
8An	8a#
=3	=3
*M5/4	*M5/4
8G#	8b
8E	8dd
8D	8ee
8E	8dd
8G#	8b
8A#	8an
8B	4g#
8cn	.
4d}	4e}
=4	=4
*M4/4	*M4/4
2r	{8a
.	8cc#
.	8a
.	8g#
{8A	4.f#
8c#	.
8A	.
8G#	8e}
=5	=5
4.F#	{8d
.	8A
.	8d
8E}	8e
{8D	8f#
8AA	8g#
8D	8f#
8E	8e}
=6	=6
8F#	{4.a
8G#	.
8F#	.
8E}	8g#
{4.A	8f#
.	8d
.	8f#
8G#	8g#
=7	=7
*M5/4	*M5/4
8F#	8a
8D	8ccn
8F#	8a
8G#	8e#
8A	8f#
8B	8g#
4.B#}	4a
.	8bn}
8r	8r
=8	=8
*M4/4	*M4/4
8c#	2r
4.c#	.
[{2c#	8cc#
.	4.cc#
=9	=9
8c#]	{2..cc#
8A	.
8Gn	.
8A	.
8c#	.
8d#	.
8e	.
8dn	8dd#
=10	=10
8c#	8ee
8A	8ggn
8Gn	8aa
8A	8gg
8c#	8ee
8d#	8ddn
8e	8cc#
8dn	8dd#
=11	=11
*M6/4	*M6/4
8c#	8ee
8A	8ggn
8Gn	8aa
8Fn	8bb
8G	8aa
8A	8gg
8c#	8ee
8d#	8ddn
8e	4cc#
8fn	.
8gn}	8a}
8r	8r
=12	=12
*M4/4	*M4/4
{8d	4r
8f	.
8d	{4.dd
8cn	.
4.B-	.
.	8ff
.	8dd
8A-}	8ccn
=13	=13
*M3/4	*M3/4
{8Gn	4.b-
8E-	.
8G	.
8An	8a-}
8B-	{8gn
8A-}	8an
=14	=14
*M4/4	*M4/4
{8Gn	8b-
8En	8a-}
8G	{4.gn
8An	.
4.B-	.
.	8e
.	8g
8cn	8an
=15	=15
*M5/4	*M5/4
8c#}	8b-}
{8F#	{8ccn
8Gn	8b-
8A	8a
8B-	4.cc#}
8cn	.
4.c#}	.
.	{8f#
.	8gn
{8F#	8a
=16	=16
*M6/4	*M6/4
8Gn	8b-
8A	8ccn
8B-	8cc#}
8cn	{8f#
8c#}	8gn
{8F#	8a
8G	8b-
8A	8ccn
8B-	4b-
8cn	.
8c#}	8fn}
8r	8r
=17	=17
*M4/4	*M4/4
8d	2r
4.d	.
[{2d	8dd
.	4.dd
=18	=18
8d]	[{1dd
8A	.
8F#	.
8E	.
8D	.
8BB	.
8D	.
8E}	.
=19	=19
*M3/2	*M3/2
{8F#	8dd]
8A	8ffn
8c#	8aa
8A	8ff
8F#	8dd
8A	8ff
8F#	8dd
8E	8ccn
8D	8b-
8BBn	8gn
8D	8b-
8E}	8cc
=20	=20
{8F#	8dd}
8A	4.dd
8c#	.
8A	.
8F#	2dd
8A	.
8F#	.
8E	.
8D	8r
8BBn	{8d
8D	8fn
8E}	8gn
=21	=21
{8F#	8a}
8A	4.a
8c#	.
8A	.
8F#	2a
8A	.
8F#	.
8E	.
8D	8r
8BBn	{8Gn
8D	8B-
8E}	8cn
=22	=22
*M4/4	*M4/4
4F#	8d}
.	4.d
4r	.
8G#	2d
4.G#	.
=23	=23
2A#	8d
.	4.d
8B	2d
4.B	.
=24	=24
2cn	8d
.	4.d
8c#	[2d
4c#	.
{8c#	.
=25	=25
1d}	1d]
==	==
*-	*-
